!!!OTL: 182d. Schwesterliebe.
!!!ODT: 1889
!!!ARE: Europa, Mitteleuropa, Deutschland; France, Elsass
!!!SCT: E0182C
!!!TXL: @@DE
!!!YEM: Copyright 1995, estate of Helmut Schaffrath.
**kern	**text
*ICvox	*
*M4/4	*
*met(c|)	*
*k[f#]	*
*G:	*
!LO:TX:a:t=Elſaßer Melodie 1889.	!
{4d	Es
=1	=1
4g	wohnt
4g	ein
4f#	Pfalʒ-
4a	-graf
=2	=2
4g	an
4e	dem
4d}	Rhein,
{4d	der
=3	=3
4e	hat
4e	drei
4e	ſchö-
4g	-ne
=4	=4
4d	Töch-
4d	-ter-
4B}	-lein,
{4d	der
=5	=5
4g	hat
4b/	drei
4a	ſchö-
4a	-ne
=6	=6
2dd	Töch-
2cc	-ter-
=7	=7
2b	-lein.
4r}	.
==	==
!!!AGN: erzaehlendes Volks - Lied, Sage, Familien - Geschichte
!!!ONB: ESAC (Essen Associative Code) Database: ERK1
!!!AMT: simple quadruple
!!!AIN: vox
!!!EED: Helmut Schaffrath
!!!EEV: 1.0
!!!GTL: Denkwuerdige Familiengeschichten
!!!URL-scan: https://rosdok.uni-rostock.de/mcrviewer/recordIdentifier/rosdok_ppn745146120/iview2/phys_0623.iview2?x=-128.7727644188933&y=2218.461174300872&scale=0.5870222003877484&rotation=0&layout=singlePageLayout
!!!ENC: Anna Maria Matuszewska
!!!EEV: 2024/04/12
*-	*-
